svgs/sharp-light/square-caret-down.svg

<svg xmlns="http://www.w3.org/2000/svg" viewBox="0 0 448 512"><!--! Font Awesome Pro 6.6.0 by @fontawesome - https://fontawesome.com License - https://fontawesome.com/license (Commercial License) Copyright 2024 Fonticons, Inc. --><path d="M32 448L32 64l384 0 0 384L32 448zM0 480l32 0 384 0 32 0 0-32 0-384 0-32-32 0L32 32 0 32 0 64 0 448l0 32zM96 192l0 32 0 8L224 352 352 232l0-8 0-32-32 0-192 0-32 0zM224 308.1L134.3 224l179.5 0L224 308.1z"/></svg>

<svg xmlns="http://www.w3.org/2000/svg" viewBox="0 0 448 512"><!--! Font Awesome Pro 6.4.2 by @fontawesome - https://fontawesome.com License - https://fontawesome.com/license (Commercial License) Copyright 2023 Fonticons, Inc. --><path d="M32 448V64H416V448H32zM0 480H32 416h32V448 64 32H416 32 0V64 448v32zM96 192v32 8L224 352 352 232v-8V192H320 128 96zM224 308.1L134.3 224H313.7L224 308.1z"/></svg>
